X: 7350
T: Cliffs Of Moher, The
R: jig
M: 6/8
K: Adorian
|:a2a bag|eaf ged|c2A BAG|EFG ABd|
eaa bag|eaf ged|c2A BAG|EFG A3:|
e2e dBA|e2e dBA|GAB dBA|GAB dBd|
e2e dBA|e2e dBA|GAB dBA|EFG A3|
efe dBA|efe dBA|GAB dBA|GAB dBd|
eee dee|cee Bee|EFG BAG|EDC A,3||

